X: 21762
T: SHATTUCK'S REEL
R: reel
B: K\"ohler's Violin Repository, v.2, 1885 p.176 #2
F: http://www.archive.org/details/klersviolinrepos02rugg
Z: 2012 John Chambers <jc:trillian.mit.edu>
M: C|
L: 1/8
K: Bb
|: vfBgB fBbB | fdcB Ac ((3cBc) | (fB)gB fBbB | (fd)cB dB ((3BAB) :|
|: vDFBF GE ((3EDE) | (FB)dB Ac ((3cBc) | (DF)BF GE ((3EDE) | FABc dB ((3BAB) :|
|: vfBdB GE ((3EDE) | (FB)dB Ac ((3cBc) | (fB)dB GE ((3EDE) | FABc dB ((3BAB) :|

%%sep 2 1 500

